X: 1
T:The Onion Two-step
M:6/8
L:1/8
C:Noel Jackson
R:two-step
N:named when a band member misheard "un-named twostep".
K:G
d |\
G2d dcA | B^df agf | g2e cde | d3 dcA | G2d BAD | EGB edB | A^ce age | f2d dec|
| G2d dcA | B^df agf | gfg efg | d3 d^cd| e2g gfg | d2g gfg | fge dcA | GBd g2 ||
d |\
e2B BAG | e2B GFE | cEF GA_B | B3 B2^d | e2B BAG | edB GFE | DEF Ga ^c | d3 d^cd |
| e2g gfg | d2g gfg | d2g gfg | fed cBA | G3- G2 |]


